X:75
T:The Rambling Pitchfork
M:6/8
K:D
|F3 AFF|dFF AFD|GFG ABc|ded cAG|\
F2 F AFF|dFF AFD|G3 BGB| AFD D3 :|
|: d2 e fed|ecA AFA|dcd efg|f/g/af gfe|\
d2 e fed|ecA AGF|G3 BGB| AFD D:|
